Numix-GalliumOS/16/actions/gtk-print-error.svg

<?xml version="1.0" encoding="UTF-8" standalone="no"?>
<svg
   xmlns:dc="http://purl.org/dc/elements/1.1/"
   xmlns:cc="http://creativecommons.org/ns#"
   xmlns:rdf="http://www.w3.org/1999/02/22-rdf-syntax-ns#"
   xmlns:svg="http://www.w3.org/2000/svg"
   xmlns="http://www.w3.org/2000/svg"
   xmlns:sodipodi="http://sodipodi.sourceforge.net/DTD/sodipodi-0.dtd"
   xmlns:inkscape="http://www.inkscape.org/namespaces/inkscape"
   width="16"
   height="16"
   viewBox="0 0 16 16"
   id="svg2"
   version="1.1"
   inkscape:version="0.91 r"
   sodipodi:docname="gtk-print-error.svg">
  <metadata
     id="metadata24">
    <rdf:RDF>
      <cc:Work
         rdf:about="">
        <dc:format>image/svg+xml</dc:format>
        <dc:type
           rdf:resource="http://purl.org/dc/dcmitype/StillImage" />
        <dc:title></dc:title>
      </cc:Work>
    </rdf:RDF>
  </metadata>
  <defs
     id="defs22" />
  <sodipodi:namedview
     pagecolor="#ffffff"
     bordercolor="#666666"
     borderopacity="1"
     objecttolerance="10"
     gridtolerance="10"
     guidetolerance="10"
     inkscape:pageopacity="0"
     inkscape:pageshadow="2"
     inkscape:window-width="1366"
     inkscape:window-height="747"
     id="namedview20"
     showgrid="false"
     inkscape:zoom="4.9166667"
     inkscape:cx="-18.813559"
     inkscape:cy="24"
     inkscape:window-x="0"
     inkscape:window-y="21"
     inkscape:window-maximized="1"
     inkscape:current-layer="svg2" />
  <g
     id="g4158">
    <g
       id="g4142"
       style="fill-rule:evenodd">
      <path
         id="path4144"
         d="m 4.6666667,0.00394322 6.6666663,0 C 13,0.00394322 13,-0.16265773 13,1.6699527 l 0,6.6640378 C 13,10 13,10 11.333333,10 L 4.6666667,10 C 3,10 3,10 3,8.3339905 L 3,1.6699527 C 3,0.00394322 3,0.00394322 4.6666667,0.00394322 Z"
         style="fill:#aaaaaa;fill-opacity:0.93999999"
         inkscape:connector-curvature="0" />
      <path
         id="path4146"
         d="M 1.6,4 14.4,4 C 16,4 16,4 16,5.6 l 0,4.8 C 16,12 16,12 14.4,12 L 1.6,12 C 0,12 0,12 0,10.4 L 0,5.6 C 0,4 0,4 1.6,4 Z"
         style="fill:#cccccc"
         inkscape:connector-curvature="0" />
    </g>
    <g
       id="g4148"
       transform="matrix(0.83333,0,0,0.8,-2,-0.8)">
      <path
         id="path4150"
         d="m 6,11 12,0 0,10 -12,0 z"
         style="fill:#dc322f"
         inkscape:connector-curvature="0" />
    </g>
  </g>
  <g
     id="g4195-7"
     style="fill-rule:evenodd"
     transform="matrix(0.2,0,0,0.2,7.2,-0.8)">
    <path
       id="path4197-0"
       d="M 44,24 C 44,35.046875 35.046875,44 24,44 12.953125,44 4,35.046875 4,24 4,12.953125 12.953125,4 24,4 35.046875,4 44,12.953125 44,24 Z"
       style="fill:#dc322f"
       inkscape:connector-curvature="0" />
    <path
       id="path4199-0"
       d="m 14.011719,14 0,3.332031 c -0.07422,0.9375 0.238281,1.890625 0.941406,2.539063 l 4.273437,4.203125 -4.273437,4.203125 c -0.628906,0.625 -0.941406,1.507812 -0.941406,2.390625 l 0,3.332031 3.332031,0 c 0.878906,0 1.761719,-0.316406 2.386719,-0.941406 l 4.273437,-4.277344 4.273438,4.277344 C 28.902344,33.683594 29.785156,34 30.667969,34 L 34,34 34,30.667969 c 0,-0.882813 -0.316406,-1.765625 -0.941406,-2.390625 l -4.199219,-4.203125 4.273437,-4.203125 C 33.847656,19.207031 34,18.289062 34,17.332031 L 34,14 30.667969,14 c -0.800781,0.02344 -1.433594,0.320312 -2.316407,1.085938 l -4.347656,4.203124 -4.273437,-4.203124 C 19.140625,14.476562 18.335938,14.039062 17.488281,14 17.453125,14 17.375,14 17.34375,14 Z"
       style="fill:#ffffff"
       inkscape:connector-curvature="0" />
    <path
       id="path4201-2"
       d="m 14.011719,14 0,3.332031 c -0.07422,0.9375 0.238281,1.890625 0.941406,2.539063 l 4.273437,4.203125 -4.273437,4.203125 c -0.628906,0.625 -0.941406,1.507812 -0.941406,2.390625 l 0,3.332031 3.332031,0 c 0.878906,0 1.761719,-0.316406 2.386719,-0.941406 l 4.273437,-4.277344 4.273438,4.277344 C 28.902344,33.683594 29.785156,34 30.667969,34 L 34,34 34,30.667969 c 0,-0.882813 -0.316406,-1.765625 -0.941406,-2.390625 l -4.199219,-4.203125 4.273437,-4.203125 C 33.847656,19.207031 34,18.289062 34,17.332031 L 34,14 30.667969,14 c -0.800781,0.02344 -1.433594,0.320312 -2.316407,1.085938 l -4.347656,4.203124 -4.273437,-4.203124 C 19.140625,14.476562 18.335938,14.039062 17.488281,14 17.453125,14 17.375,14 17.34375,14 Z"
       style="fill:#dc322f;fill-opacity:0.10199998"
       inkscape:connector-curvature="0" />
  </g>
</svg>

<svg xmlns="http://www.w3.org/2000/svg" viewBox="0 0 16 16">
 <g>
  <g style="fill-rule:evenodd">
   <path d="m 4.667 0.004 6.667 0 c 1.667 0 1.667 -0.167 1.667 1.666 l 0 6.664 c 0 1.666 0 1.666 -1.667 1.666 l -6.667 0 c -1.667 0 -1.667 0 -1.667 -1.666 l 0 -6.664 c 0 -1.666 0 -1.666 1.667 -1.666" style="fill:#aaa;fill-opacity:0.94"/>
   <path d="M 1.6,4 14.4,4 C 16,4 16,4 16,5.6 l 0,4.8 C 16,12 16,12 14.4,12 L 1.6,12 C 0,12 0,12 0,10.4 L 0,5.6 C 0,4 0,4 1.6,4 Z" style="fill:#ccc"/>
  </g>
  <g transform="matrix(0.83333,0,0,0.8,-2,-0.8)">
   <path d="m 6 11 12 0 0 10 -12 0 z" style="fill:#dc322f"/>
  </g>
 </g>
 <g transform="matrix(0.2,0,0,0.2,7.2,-0.8)" style="fill-rule:evenodd">
  <path d="m 44 24 c 0 11.05 -8.953 20 -20 20 -11.05 0 -20 -8.953 -20 -20 0 -11.05 8.953 -20 20 -20 11.05 0 20 8.953 20 20" style="fill:#dc322f"/>
  <path d="m 14.01 14 0 3.332 c -0.074 0.938 0.238 1.891 0.941 2.539 l 4.273 4.203 -4.273 4.203 c -0.629 0.625 -0.941 1.508 -0.941 2.391 l 0 3.332 3.332 0 c 0.879 0 1.762 -0.316 2.387 -0.941 l 4.273 -4.277 4.273 4.277 c 0.625 0.625 1.508 0.941 2.391 0.941 l 3.332 0 0 -3.332 c 0 -0.883 -0.316 -1.766 -0.941 -2.391 l -4.199 -4.203 4.273 -4.203 c 0.715 -0.664 0.867 -1.582 0.867 -2.539 l 0 -3.332 -3.332 0 c -0.801 0.023 -1.434 0.32 -2.316 1.086 l -4.348 4.203 -4.273 -4.203 c -0.59 -0.609 -1.395 -1.047 -2.242 -1.086 -0.035 0 -0.113 0 -0.145 0" style="fill:#fff"/>
  <path d="m 14.01 14 0 3.332 c -0.074 0.938 0.238 1.891 0.941 2.539 l 4.273 4.203 -4.273 4.203 c -0.629 0.625 -0.941 1.508 -0.941 2.391 l 0 3.332 3.332 0 c 0.879 0 1.762 -0.316 2.387 -0.941 l 4.273 -4.277 4.273 4.277 c 0.625 0.625 1.508 0.941 2.391 0.941 l 3.332 0 0 -3.332 c 0 -0.883 -0.316 -1.766 -0.941 -2.391 l -4.199 -4.203 4.273 -4.203 c 0.715 -0.664 0.867 -1.582 0.867 -2.539 l 0 -3.332 -3.332 0 c -0.801 0.023 -1.434 0.32 -2.316 1.086 l -4.348 4.203 -4.273 -4.203 c -0.59 -0.609 -1.395 -1.047 -2.242 -1.086 -0.035 0 -0.113 0 -0.145 0" style="fill:#dc322f;fill-opacity:0.102"/>
 </g>
</svg>
